X:1
T:Macfarren, CMD
T:Macfarren, CMD
T:George Alexander Macfarren, 1868
T:Public Domain Courtesy of the Cyber Hymnal™
C:George Alexander Macfarren, 1868
Z:Public Domain
Z:Courtesy of the Cyber Hymnal™
%%score ( 1 2 ) ( 3 4 )
L:1/8
Q:1/4=115
M:none
K:G
V:1 treble 
V:2 treble 
V:3 bass 
V:4 bass 
V:1
 [DG]2 | [DA]2 [DB]2 E2 [CF]2 | [B,G]2 [DA]2 [DB]2 [EB]2 | [Ec]2 [EB]2 [Dd]2 [Ec]2 | [DA]6 [B,G]2 | %5
 [DA]2 [DB]2 E2 [CF]2 | [B,G]2 [EA]2 [^DB]2 [EB]2 | [^DA]2 [EG]2 [EF]2 [DF]2 | E6 E2 | %9
 [EF]2 [^DF]2 [EG]2 G2 | [GA]2 [Fd]2 [GB]2 [GB]2 | [Gc]2 [GB]2 [Gc]2 [=Fd]2 | [Ee]6 [EG]2 | %13
 [EA]2 [EB]2 E2 [CF]2 | [B,G]2 [EA]2 [^DB]2 [=D^d]2 | [Fc]2 [GB]2 [GA]2 [FA]2 | G6 |] %17
V:2
 x2 | x4 E2 x2 | x8 | x8 | x8 | x4 E2 x2 | x8 | x8 | E6 E2 | x6 G2 | x8 | x8 | x8 | x4 E2 x2 | x8 | %15
 x8 | G6 |] %17
V:3
 [G,B,]2 | [F,A,]2 G,2 [C,G,]2 [A,,A,]2 | [E,B,]2 [D,F,]2 [G,,G,]2 [E,G,]2 | %3
 [A,,A,]2 [E,G,]2 [B,,G,]2 [C,G,]2 | [D,F,]6 [E,G,]2 | [D,F,]2 [G,,G,]2 [C,G,]2 [A,,A,]2 | %6
 [E,B,]2 [C,A,]2 [B,,F,]2 [E,G,]2 | [F,A,]2 B,2 B,2 [B,,B,]2 | [E,G,]6 [E,G,]2 | %9
 [B,,B,]2 [B,,B,]2 [E,B,]2 [E,B,]2 | [D,D]2 [D,D]2 [G,D]2 [G,D]2 | [C,E]2 [G,D]2 [E,C]2 [D,B,]2 | %12
 [C,C]6 C2 | [CE]2 [G,B,]2 [A,C]2 [A,,A,]2 | [E,B,]2 [C,A,]2 [B,,F,]2 [G,,B,]2 | %15
 [A,,C]2 D2 [D,D]2 [D,D]2 | [G,,B,]6 |] %17
V:4
 x2 | x2 G,2 x4 | x8 | x8 | x8 | x8 | x8 | x2 (G,A,) B,2 x2 | x8 | x8 | x8 | x8 | x6 C2 | x8 | x8 | %15
 x2 (B,,C,) x4 | x6 |] %17

